X: 8
T: Tam Lin
R: reel
M: 4/4
L: 1/8
K: Bmin
F2 BF dFBF|G2 BG dGBG|A2 cA eAcA|dcBA FBBA| F2 BF dFBF|G2 BG dGBG|A2 cA eAcA|dcBA FB B2:||bf ~f2 dfBf|bf ~f2 dfBf|ae ~e2 ce ~e2|ae ~e2 abc'a|bf ~f2 dfBf|bf ~f2 dfBF|~G3 F GABc|dBcA FB B2:||


Tune 248	Setting 28812

